build/img/record/telegram.svg

<svg width="40" height="40" viewBox="0 0 40 40" fill="none" xmlns="http://www.w3.org/2000/svg">
<rect width="40" height="40" fill="white" fill-opacity="0.16"/>
<path d="M28 12.6022L24.9946 28.2923C24.9946 28.2923 24.5741 29.3801 23.4189 28.8584L16.4846 23.3526L16.4524 23.3364C17.3891 22.4654 24.6524 15.7027 24.9698 15.3961C25.4613 14.9214 25.1562 14.6387 24.5856 14.9974L13.8568 22.053L9.71764 20.6108C9.71764 20.6108 9.06626 20.3708 9.00359 19.8491C8.9401 19.3265 9.73908 19.0439 9.73908 19.0439L26.6131 12.1889C26.6131 12.1889 28 11.5579 28 12.6022V12.6022Z" fill="#FEFEFE"/>
</svg>

<svg width="40" height="40" fill="none" xmlns="http://www.w3.org/2000/svg"><path fill="#fff" fill-opacity=".16" d="M0 0h40v40H0z"/><path d="M28 12.602l-3.005 15.69s-.42 1.088-1.576.566l-6.934-5.505-.033-.017c.937-.87 8.2-7.633 8.518-7.94.491-.475.186-.757-.384-.399l-10.73 7.056-4.138-1.442s-.652-.24-.714-.762c-.064-.523.735-.805.735-.805l16.874-6.855S28 11.558 28 12.602z" fill="#FEFEFE"/></svg>
